dist/assets/img/iconsfont/favorite.svg

<svg width="28" height="27" viewBox="0 0 28 27" fill="none" xmlns="http://www.w3.org/2000/svg">
<path d="M20.1004 0C17.7169 0 15.4856 1.07339 14 2.87184C12.5144 1.07333 10.2832 0 7.89957 0C3.54375 0 0 3.52462 0 7.85705C0 11.2495 2.03385 15.1734 6.04492 19.5198C9.13175 22.8646 12.4897 25.4544 13.4454 26.1685L13.9998 26.5828L14.5543 26.1686C15.5099 25.4545 18.868 22.8647 21.9549 19.52C25.9661 15.1736 28 11.2496 28 7.85705C28 3.52462 24.4562 0 20.1004 0ZM20.5948 18.2782C18.0558 21.0293 15.3242 23.2533 13.9998 24.2783C12.6755 23.2533 9.944 21.0293 7.40498 18.2781C3.76837 14.3375 1.84615 10.734 1.84615 7.85705C1.84615 4.53717 4.56172 1.83622 7.89957 1.83622C10.0961 1.83622 12.1243 3.02694 13.1927 4.94377L14 6.3923L14.8073 4.94377C15.8756 3.027 17.9038 1.83622 20.1004 1.83622C23.4383 1.83622 26.1538 4.53711 26.1538 7.85705C26.1538 10.7341 24.2316 14.3377 20.5948 18.2782Z" fill="black"/>
</svg>

<svg width="28" height="27" fill="none" xmlns="http://www.w3.org/2000/svg"><path d="M20.1 0A7.917 7.917 0 0014 2.872 7.917 7.917 0 007.9 0C3.544 0 0 3.525 0 7.857c0 3.392 2.034 7.316 6.045 11.663 3.087 3.345 6.445 5.934 7.4 6.649l.555.414.554-.414c.956-.715 4.314-3.304 7.4-6.649C25.967 15.174 28 11.25 28 7.857 28 3.525 24.456 0 20.1 0zm.495 18.278c-2.54 2.751-5.27 4.975-6.595 6-1.325-1.025-4.056-3.249-6.595-6-3.637-3.94-5.559-7.544-5.559-10.42 0-3.32 2.716-6.022 6.054-6.022a6.063 6.063 0 015.293 3.108L14 6.392l.807-1.448A6.063 6.063 0 0120.1 1.836c3.338 0 6.054 2.701 6.054 6.021 0 2.877-1.922 6.48-5.56 10.421z" fill="#000"/></svg>
